src/epub/images/titlepage.svg

<?xml version="1.0" encoding="utf-8"?>
<svg xmlns="http://www.w3.org/2000/svg" xmlns:svg="http://www.w3.org/2000/svg" version="1.1" viewBox="0 0 1400 440">
	<title>The titlepage for the Standard Ebooks edition of The War of the Worlds, by H. G. Wells</title>
	<g>
		<path d="m 468.00365,68.245613 18.33918,0 0,61.754387 17.59065,0 0,-61.754387 18.33918,0 0,-15.438597 -54.26901,0 0,15.438597 z"/>
		<path d="m 551.1981,99.029239 24.88889,0 0,30.970761 17.59064,0 0,-77.192984 -17.59064,0 0,30.783626 -24.88889,0 0,-30.783626 -17.59065,0 0,77.192984 17.59065,0 0,-30.970761 z"/>
		<path d="m 654.04313,52.807016 -44.16374,0 0,77.192984 44.16374,0 0,-15.4386 -26.5731,0 0,-15.532161 25.45029,0 0,-15.438597 -25.45029,0 0,-15.345029 26.5731,0 0,-15.438597 z"/>
		<path d="m 750.92763,130 19.46199,0 21.98831,-77.192984 -19.46199,0 -13.19298,52.959064 -0.46784,0 -14.03509,-52.959064 -13.28655,0 -14.03509,52.959064 -0.46783,0 -13.19299,-52.959064 -19.55555,0 L 706.67032,130 726.22588,130 738.57676,86.678362 750.92763,130 Z"/>
		<path d="m 832.21271,52.807016 -16.2807,0 L 784.77412,130 l 18.90058,0 5.7076,-15.4386 29.38012,0 5.7076,15.4386 18.90059,0 -31.1579,-77.192984 z m 0.56141,46.31579 -17.40351,0 8.60818,-22.45614 0.18714,0 8.60819,22.45614 z"/>
		<path d="m 871.2902,52.807016 0,77.192984 17.59064,0 0,-30.502925 L 912.45979,130 l 22.36257,0 -26.5731,-31.906433 c 9.4503,-2.994152 15.81287,-10.760234 15.81287,-22.362574 0,-15.157895 -10.8538,-22.923977 -25.16959,-22.923977 l -27.60234,0 z m 17.59064,34.245615 0,-20.210527 2.05848,0 c 6.64328,0 14.59649,0.467836 14.59649,10.105263 0,9.637428 -7.95321,10.105264 -14.59649,10.105264 l -2.05848,0 z"/>
	</g>
	<g>
		<path d="m 277.68932,191.35672 c 0,22.54971 16.09357,40.04679 38.92398,40.04679 22.17544,0 38.83041,-17.49708 38.83041,-40.04679 0,-22.5497 -17.40351,-39.95321 -38.83041,-39.95321 -21.23977,0 -38.92398,17.40351 -38.92398,39.95321 z m 18.99415,0 c 0,-11.50877 6.36258,-23.01754 19.92983,-23.01754 13.66082,0 19.83626,11.50877 19.83626,23.01754 0,11.50878 -5.80117,23.01755 -19.83626,23.01755 -14.40936,0 -19.92983,-11.50877 -19.92983,-23.01755 z"/>
		<path d="m 412.83698,152.80702 -44.63158,0 0,77.19298 17.59064,0 0,-30.97076 24.98246,0 0,-15.4386 -24.98246,0 0,-15.34503 27.04094,0 0,-15.43859 z"/>
		<path d="m 447.35307,168.24561 18.33918,0 0,61.75439 17.59065,0 0,-61.75439 18.33918,0 0,-15.43859 -54.26901,0 0,15.43859 z"/>
		<path d="m 530.54751,199.02924 24.88889,0 0,30.97076 17.59064,0 0,-77.19298 -17.59064,0 0,30.78362 -24.88889,0 0,-30.78362 -17.59064,0 0,77.19298 17.59064,0 0,-30.97076 z"/>
		<path d="m 633.39254,152.80702 -44.16375,0 0,77.19298 44.16375,0 0,-15.4386 -26.5731,0 0,-15.53216 25.45029,0 0,-15.4386 -25.45029,0 0,-15.34503 26.5731,0 0,-15.43859 z"/>
		<path d="m 730.27705,230 19.46199,0 21.98831,-77.19298 -19.46199,0 -13.19298,52.95906 -0.46784,0 -14.03509,-52.95906 -13.28655,0 -14.03509,52.95906 -0.46783,0 -13.19298,-52.95906 -19.55556,0 L 686.01974,230 705.5753,230 717.92618,186.67836 730.27705,230 Z"/>
		<path d="m 774.56069,191.35672 c 0,22.54971 16.09357,40.04679 38.92398,40.04679 22.17544,0 38.83041,-17.49708 38.83041,-40.04679 0,-22.5497 -17.40351,-39.95321 -38.83041,-39.95321 -21.23977,0 -38.92398,17.40351 -38.92398,39.95321 z m 18.99415,0 c 0,-11.50877 6.36257,-23.01754 19.92983,-23.01754 13.66082,0 19.83625,11.50877 19.83625,23.01754 0,11.50878 -5.80117,23.01755 -19.83625,23.01755 -14.40936,0 -19.92983,-11.50877 -19.92983,-23.01755 z"/>
		<path d="m 865.07679,152.80702 0,77.19298 17.59064,0 0,-30.50292 23.57895,30.50292 22.36257,0 -26.5731,-31.90643 c 9.45029,-2.99416 15.81287,-10.76024 15.81287,-22.36258 0,-15.15789 -10.85381,-22.92397 -25.1696,-22.92397 l -27.60233,0 z m 17.59064,34.24561 0,-20.21053 2.05848,0 c 6.64327,0 14.59649,0.46784 14.59649,10.10527 0,9.63742 -7.95322,10.10526 -14.59649,10.10526 l -2.05848,0 z"/>
		<path d="m 954.73609,152.80702 -17.59064,0 0,77.19298 44.16374,0 0,-15.4386 -26.5731,0 0,-61.75438 z"/>
		<path d="m 994.95978,152.80702 0,77.19298 22.36262,0 c 21.2397,0 38.9239,-16.09357 38.9239,-38.64328 0,-22.45614 -17.7777,-38.5497 -38.9239,-38.5497 l -22.36262,0 z m 17.59062,61.47368 0,-45.75439 2.7135,0 c 13.0994,0 21.9883,10.0117 21.9883,22.92398 -0.094,12.91228 -8.9825,22.83041 -21.9883,22.83041 l -2.7135,0 z"/>
		<path d="m 1095.6557,151.40351 c -12.4445,0 -25.1696,9.16959 -25.1696,23.57895 0,8.04678 5.4269,15.25146 14.6901,19.83625 9.1695,4.5848 17.4035,7.11111 17.4035,12.72515 0,7.20468 -7.2983,7.57895 -11.1345,7.57895 -8.6082,0 -18.9006,-8.70176 -18.9006,-8.70176 l -8.7953,14.78363 c 0,0 10.9473,10.19883 29.0058,10.19883 15.0643,0 29.0994,-6.45614 29.0994,-24.88889 0,-10.10526 -9.4503,-17.40351 -18.0585,-21.05263 -8.7953,-3.74269 -16.0935,-6.83041 -16.0935,-11.13451 0,-4.21052 3.1813,-6.92397 9.1696,-6.92397 7.9532,0 15.6257,5.33333 15.6257,5.33333 l 7.1111,-14.03509 c 0,0 -9.9181,-7.29824 -23.9532,-7.29824 z"/>
	</g>
	<g>
		<path d="m 473.03673,366.77193 18.66667,0 0,23.22807 13.19298,0 0,-57.89474 -13.19298,0 0,23.08772 -18.66667,0 0,-23.08772 -13.19298,0 0,57.89474 13.19298,0 0,-23.22807 z"/>
		<path d="m 526.2977,374.98246 c -4.42106,0 -8,3.57894 -8,8.07017 0,4.42105 3.57894,8 8,8 4.49123,0 8.07017,-3.57895 8.07017,-8 0,-4.49123 -3.57894,-8.07017 -8.07017,-8.07017 z"/>
		<path d="m 624.37116,357.57895 -26.73684,0 0,10.17544 13.33333,0 c 0,7.08772 -6.24561,11.15789 -12.5614,11.15789 -8.14036,0 -14.73685,-8 -14.73685,-17.82456 0,-10.03509 6.59649,-18.10526 14.73685,-18.10526 5.1228,0 9.54386,2.03508 12.91228,7.43859 l 8.63158,-9.47368 c -5.05264,-6.10526 -12.14036,-9.89474 -22.31579,-9.89474 -16.28071,0 -28.21053,13.40351 -28.21053,30.03509 0,16.5614 12.63158,29.96491 28.21053,29.96491 11.36842,0 23.57894,-6.24561 26.73684,-20.91228 l 0,-12.5614 z"/>
		<path d="m 643.13431,374.98246 c -4.42105,0 -8,3.57894 -8,8.07017 0,4.42105 3.57895,8 8,8 4.49123,0 8.07018,-3.57895 8.07018,-8 0,-4.49123 -3.57895,-8.07017 -8.07018,-8.07017 z"/>
		<path d="m 727.24726,390 14.59649,0 16.49123,-57.89474 -14.5965,0 -9.89473,39.7193 -0.35088,0 -10.52632,-39.7193 -9.96491,0 -10.52631,39.7193 -0.35088,0 -9.89474,-39.7193 -14.66666,0 L 694.05427,390 708.72094,390 717.9841,357.50877 727.24726,390 Z"/>
		<path d="m 799.62226,332.10526 -33.12281,0 0,57.89474 33.12281,0 0,-11.57895 -19.92982,0 0,-11.64912 19.08771,0 0,-11.57895 -19.08771,0 0,-11.50877 19.92982,0 0,-11.57895 z"/>
		<path d="m 825.39968,332.10526 -13.19298,0 0,57.89474 33.1228,0 0,-11.57895 -19.92982,0 0,-46.31579 z"/>
		<path d="m 870.01043,332.10526 -13.19298,0 0,57.89474 33.1228,0 0,-11.57895 -19.92982,0 0,-46.31579 z"/>
		<path d="m 922.7615,331.05263 c -9.33334,0 -18.8772,6.8772 -18.8772,17.68421 0,6.03509 4.07018,11.4386 11.01755,14.8772 6.87719,3.43859 13.05263,5.33333 13.05263,9.54385 0,5.40351 -5.47368,5.68422 -8.35088,5.68422 -6.45614,0 -14.17544,-6.52632 -14.17544,-6.52632 l -6.59649,11.08772 c 0,0 8.21053,7.64912 21.75439,7.64912 11.29824,0 21.82456,-4.8421 21.82456,-18.66666 0,-7.57895 -7.08772,-13.05264 -13.54386,-15.78948 -6.59649,-2.80702 -12.07018,-5.12281 -12.07018,-8.35088 0,-3.15789 2.38597,-5.19298 6.8772,-5.19298 5.96491,0 11.7193,4 11.7193,4 l 5.33333,-10.52631 c 0,0 -7.4386,-5.47369 -17.96491,-5.47369 z"/>
	</g>
</svg>

<?xml version="1.0" encoding="utf-8"?>
<svg xmlns="http://www.w3.org/2000/svg" xmlns:svg="http://www.w3.org/2000/svg" version="1.1" viewBox="0 0 1400 440">
	<title>The titlepage for the Standard Ebooks edition of The War of the Worlds, by H. G. Wells</title>
	<g aria-label="THE WAR">
		<path d="m 468.00365,68.245613 h 18.33918 V 130 h 17.59065 V 68.245613 h 18.33918 V 52.807016 h -54.26901 z"/>
		<path d="m 551.1981,99.029239 h 24.88889 V 130 h 17.59064 V 52.807016 H 576.08699 V 83.590642 H 551.1981 V 52.807016 H 533.60745 V 130 h 17.59065 z"/>
		<path d="M 654.04313,52.807016 H 609.87939 V 130 h 44.16374 v -15.4386 h -26.5731 V 99.029239 h 25.45029 V 83.590642 H 627.47003 V 68.245613 h 26.5731 z"/>
		<path d="m 750.92763,130 h 19.46199 l 21.98831,-77.192984 h -19.46199 l -13.19298,52.959064 h -0.46784 L 745.22003,52.807016 h -13.28655 l -14.03509,52.959064 h -0.46783 L 704.23757,52.807016 H 684.68202 L 706.67032,130 h 19.55556 l 12.35088,-43.321638 z"/>
		<path d="m 832.21271,52.807016 h -16.2807 L 784.77412,130 h 18.90058 l 5.7076,-15.4386 h 29.38012 L 844.47002,130 h 18.90059 z m 0.56141,46.31579 h -17.40351 l 8.60818,-22.45614 h 0.18714 z"/>
		<path d="M 871.2902,52.807016 V 130 h 17.59064 V 99.497075 L 912.45979,130 h 22.36257 l -26.5731,-31.906433 c 9.4503,-2.994152 15.81287,-10.760234 15.81287,-22.362574 0,-15.157895 -10.8538,-22.923977 -25.16959,-22.923977 z m 17.59064,34.245615 V 66.842104 h 2.05848 c 6.64328,0 14.59649,0.467836 14.59649,10.105263 0,9.637428 -7.95321,10.105264 -14.59649,10.105264 z"/>
	</g>
	<g aria-label="OF THE WORLDS">
		<path d="m 277.68932,191.35672 c 0,22.54971 16.09357,40.04679 38.92398,40.04679 22.17544,0 38.83041,-17.49708 38.83041,-40.04679 0,-22.5497 -17.40351,-39.95321 -38.83041,-39.95321 -21.23977,0 -38.92398,17.40351 -38.92398,39.95321 z m 18.99415,0 c 0,-11.50877 6.36258,-23.01754 19.92983,-23.01754 13.66082,0 19.83626,11.50877 19.83626,23.01754 0,11.50878 -5.80117,23.01755 -19.83626,23.01755 -14.40936,0 -19.92983,-11.50877 -19.92983,-23.01755 z"/>
		<path d="M 412.83698,152.80702 H 368.2054 V 230 h 17.59064 v -30.97076 h 24.98246 v -15.4386 h -24.98246 v -15.34503 h 27.04094 z"/>
		<path d="m 447.35307,168.24561 h 18.33918 V 230 h 17.59065 v -61.75439 h 18.33918 v -15.43859 h -54.26901 z"/>
		<path d="M 530.54751,199.02924 H 555.4364 V 230 h 17.59064 V 152.80702 H 555.4364 v 30.78362 H 530.54751 V 152.80702 H 512.95687 V 230 h 17.59064 z"/>
		<path d="M 633.39254,152.80702 H 589.22879 V 230 h 44.16375 v -15.4386 h -26.5731 v -15.53216 h 25.45029 v -15.4386 h -25.45029 v -15.34503 h 26.5731 z"/>
		<path d="m 730.27705,230 h 19.46199 l 21.98831,-77.19298 h -19.46199 l -13.19298,52.95906 h -0.46784 L 724.56945,152.80702 H 711.2829 l -14.03509,52.95906 h -0.46783 L 683.587,152.80702 H 664.03144 L 686.01974,230 h 19.55556 l 12.35088,-43.32164 z"/>
		<path d="m 774.56069,191.35672 c 0,22.54971 16.09357,40.04679 38.92398,40.04679 22.17544,0 38.83041,-17.49708 38.83041,-40.04679 0,-22.5497 -17.40351,-39.95321 -38.83041,-39.95321 -21.23977,0 -38.92398,17.40351 -38.92398,39.95321 z m 18.99415,0 c 0,-11.50877 6.36257,-23.01754 19.92983,-23.01754 13.66082,0 19.83625,11.50877 19.83625,23.01754 0,11.50878 -5.80117,23.01755 -19.83625,23.01755 -14.40936,0 -19.92983,-11.50877 -19.92983,-23.01755 z"/>
		<path d="M 865.07679,152.80702 V 230 h 17.59064 V 199.49708 L 906.24638,230 h 22.36257 l -26.5731,-31.90643 c 9.45029,-2.99416 15.81287,-10.76024 15.81287,-22.36258 0,-15.15789 -10.85381,-22.92397 -25.1696,-22.92397 z m 17.59064,34.24561 V 166.8421 h 2.05848 c 6.64327,0 14.59649,0.46784 14.59649,10.10527 0,9.63742 -7.95322,10.10526 -14.59649,10.10526 z"/>
		<path d="M 954.73609,152.80702 H 937.14545 V 230 h 44.16374 v -15.4386 h -26.5731 z"/>
		<path d="M 994.95978,152.80702 V 230 h 22.36262 c 21.2397,0 38.9239,-16.09357 38.9239,-38.64328 0,-22.45614 -17.7777,-38.5497 -38.9239,-38.5497 z m 17.59062,61.47368 v -45.75439 h 2.7135 c 13.0994,0 21.9883,10.0117 21.9883,22.92398 -0.094,12.91228 -8.9825,22.83041 -21.9883,22.83041 z"/>
		<path d="m 1095.6557,151.40351 c -12.4445,0 -25.1696,9.16959 -25.1696,23.57895 0,8.04678 5.4269,15.25146 14.6901,19.83625 9.1695,4.5848 17.4035,7.11111 17.4035,12.72515 0,7.20468 -7.2983,7.57895 -11.1345,7.57895 -8.6082,0 -18.9006,-8.70176 -18.9006,-8.70176 l -8.7953,14.78363 c 0,0 10.9473,10.19883 29.0058,10.19883 15.0643,0 29.0994,-6.45614 29.0994,-24.88889 0,-10.10526 -9.4503,-17.40351 -18.0585,-21.05263 -8.7953,-3.74269 -16.0935,-6.83041 -16.0935,-11.13451 0,-4.21052 3.1813,-6.92397 9.1696,-6.92397 7.9532,0 15.6257,5.33333 15.6257,5.33333 l 7.1111,-14.03509 c 0,0 -9.9181,-7.29824 -23.9532,-7.29824 z"/>
	</g>
	<g aria-label="H. G. WELLS">
		<path d="M 473.03673,366.77193 H 491.7034 V 390 h 13.19298 V 332.10526 H 491.7034 v 23.08772 H 473.03673 V 332.10526 H 459.84375 V 390 h 13.19298 z"/>
		<path d="m 526.2977,374.98246 c -4.42106,0 -8,3.57894 -8,8.07017 0,4.42105 3.57894,8 8,8 4.49123,0 8.07017,-3.57895 8.07017,-8 0,-4.49123 -3.57894,-8.07017 -8.07017,-8.07017 z"/>
		<path d="m 624.37116,357.57895 h -26.73684 v 10.17544 h 13.33333 c 0,7.08772 -6.24561,11.15789 -12.5614,11.15789 -8.14036,0 -14.73685,-8 -14.73685,-17.82456 0,-10.03509 6.59649,-18.10526 14.73685,-18.10526 5.1228,0 9.54386,2.03508 12.91228,7.43859 l 8.63158,-9.47368 c -5.05264,-6.10526 -12.14036,-9.89474 -22.31579,-9.89474 -16.28071,0 -28.21053,13.40351 -28.21053,30.03509 0,16.5614 12.63158,29.96491 28.21053,29.96491 11.36842,0 23.57894,-6.24561 26.73684,-20.91228 z"/>
		<path d="m 643.13431,374.98246 c -4.42105,0 -8,3.57894 -8,8.07017 0,4.42105 3.57895,8 8,8 4.49123,0 8.07018,-3.57895 8.07018,-8 0,-4.49123 -3.57895,-8.07017 -8.07018,-8.07017 z"/>
		<path d="m 727.24726,390 h 14.59649 l 16.49123,-57.89474 h -14.5965 l -9.89473,39.7193 h -0.35088 l -10.52632,-39.7193 h -9.96491 l -10.52631,39.7193 h -0.35088 l -9.89474,-39.7193 H 677.56305 L 694.05427,390 h 14.66667 l 9.26316,-32.49123 z"/>
		<path d="M 799.62226,332.10526 H 766.49945 V 390 h 33.12281 v -11.57895 h -19.92982 v -11.64912 h 19.08771 v -11.57895 h -19.08771 v -11.50877 h 19.92982 z"/>
		<path d="M 825.39968,332.10526 H 812.2067 V 390 h 33.1228 v -11.57895 h -19.92982 z"/>
		<path d="M 870.01043,332.10526 H 856.81745 V 390 h 33.1228 v -11.57895 h -19.92982 z"/>
		<path d="m 922.7615,331.05263 c -9.33334,0 -18.8772,6.8772 -18.8772,17.68421 0,6.03509 4.07018,11.4386 11.01755,14.8772 6.87719,3.43859 13.05263,5.33333 13.05263,9.54385 0,5.40351 -5.47368,5.68422 -8.35088,5.68422 -6.45614,0 -14.17544,-6.52632 -14.17544,-6.52632 l -6.59649,11.08772 c 0,0 8.21053,7.64912 21.75439,7.64912 11.29824,0 21.82456,-4.8421 21.82456,-18.66666 0,-7.57895 -7.08772,-13.05264 -13.54386,-15.78948 -6.59649,-2.80702 -12.07018,-5.12281 -12.07018,-8.35088 0,-3.15789 2.38597,-5.19298 6.8772,-5.19298 5.96491,0 11.7193,4 11.7193,4 l 5.33333,-10.52631 c 0,0 -7.4386,-5.47369 -17.96491,-5.47369 z"/>
	</g>
</svg>
